X: 110
T: Kathleen O'Moore
N:"With spirit"
B:O'Neill's 110
Z:Transcribed by henrik.norbeck@mailbox.swipnet.se
M:6/8
L:1/8
K:G
D|(G>AG) (GFG)|(A>BA) A2 (G/A/)|(B>cB) (BAG)|(dcB) A2 (G/A/)|
(B>cB) (BAG)|(AcB) A2 (G/A/)|(BG).E .D(dc)|(BG).G G2||
d|.B.G.B .d.B.d|.e.g.e (dBG)|(BAG) (GFG)|(AFD) D2 d|
(BGB) (dBd)|(ege) (dBG)|(BG).E .D(dc)|(BG).G G2||


